X:4987
T:Falling Down Stairs
M:4/4
L:1/8
S:Gary Hastings & Gerry O'Donnell; Session at Cleary's, Miltown Malbay
R:Reel
K:D
~G3B AGED|GFGB d2(3Bcd|e2ge dBAF|GAFA EADA|
~G3B AGED|GFGB d2(3Bcd|efge dBAF|~A2GF ~B3|
~g3e ~a3f|gage d2(3Bcd|efge dBAF|GAFA EADA|
~G3B AGED|GFGB d2(3Bcd|efge dBAF|~A2GF ~B3|
